Setup/v9/Assets/Themes/Kobe/Slideshow.svg

<svg width="20" height="20" viewBox="0 0 20 20" fill="none" xmlns="http://www.w3.org/2000/svg">
<path fill-rule="evenodd" clip-rule="evenodd" d="M3 1C1.61929 1 0.5 2.11929 0.5 3.5V13.5C0.5 14.8807 1.61929 16 3 16H7.79289L5.64645 18.1464C5.45118 18.3417 5.45118 18.6583 5.64645 18.8536C5.84171 19.0488 6.15829 19.0488 6.35355 18.8536L9.20711 16H10.7929L13.6464 18.8536C13.8417 19.0488 14.1583 19.0488 14.3536 18.8536C14.5488 18.6583 14.5488 18.3417 14.3536 18.1464L12.2071 16H17C18.3807 16 19.5 14.8807 19.5 13.5V3.5C19.5 2.11929 18.3807 1 17 1H3ZM11.0005 15H17C17.8284 15 18.5 14.3284 18.5 13.5V3.5C18.5 2.67157 17.8284 2 17 2H3C2.17157 2 1.5 2.67157 1.5 3.5V13.5C1.5 14.3284 2.17157 15 3 15H8.99951C8.99984 15 9.00016 15 9.00049 15H10.9995C10.9998 15 11.0002 15 11.0005 15Z" fill="#fff"/>
<rect x="3" y="3.5" width="14" height="10" rx="1.5" fill="#fff" fill-opacity="0.15"/>
<path d="M5 11.1667L7.34676 8.45226C7.76772 7.96535 8.53234 7.99715 8.91141 8.51732L10.3563 10.5M11.085 11.5L10.3563 10.5M10.3563 10.5L11.1657 9.43983C11.5165 8.98029 12.1828 8.91313 12.6183 9.29341L14 10.5" stroke="#fff" stroke-opacity="0.75" stroke-width="0.5" stroke-linecap="round" stroke-linejoin="round"/>
<ellipse cx="13.3334" cy="6.27186" rx="0.777778" ry="0.769231" fill="#fff" fill-opacity="0.2"/>
<path d="M13.9362 6.27186C13.9362 6.59822 13.6682 6.86609 13.3334 6.86609C12.9987 6.86609 12.7307 6.59822 12.7307 6.27186C12.7307 5.94549 12.9987 5.67762 13.3334 5.67762C13.6682 5.67762 13.9362 5.94549 13.9362 6.27186Z" stroke="#fff" stroke-opacity="0.75" stroke-width="0.35"/>
</svg>

<svg xmlns="http://www.w3.org/2000/svg" width="20" height="20" fill="none"><path fill="#ddd" fill-rule="evenodd" d="M3 1A2.5 2.5 0 0 0 .5 3.5v10A2.5 2.5 0 0 0 3 16h4.793l-2.147 2.146a.5.5 0 0 0 .708.708L9.207 16h1.586l2.853 2.854a.5.5 0 0 0 .708-.708L12.207 16H17a2.5 2.5 0 0 0 2.5-2.5v-10A2.5 2.5 0 0 0 17 1H3Zm8 14h6a1.5 1.5 0 0 0 1.5-1.5v-10A1.5 1.5 0 0 0 17 2H3a1.5 1.5 0 0 0-1.5 1.5v10A1.5 1.5 0 0 0 3 15h8Z" clip-rule="evenodd"/><rect width="14" height="10" x="3" y="3.5" fill="#fff" fill-opacity=".15" rx="1.5"/><path stroke="#ddd" stroke-linecap="round" stroke-linejoin="round" stroke-opacity=".75" stroke-width=".5" d="m5 11.167 2.347-2.715a1 1 0 0 1 1.564.065l1.445 1.983m.729 1-.729-1m0 0 .81-1.06a1 1 0 0 1 1.452-.147L14 10.5"/><ellipse cx="13.333" cy="6.272" fill="#fff" fill-opacity=".2" rx=".778" ry=".769"/><path stroke="#ddd" stroke-opacity=".75" stroke-width=".35" d="M13.936 6.272a.599.599 0 0 1-.603.594.599.599 0 0 1-.602-.594c0-.327.268-.594.602-.594.335 0 .603.267.603.594Z"/></svg>
